public/images/home/why-us/team.svg

<svg width="36" height="37" viewBox="0 0 36 37" fill="none" xmlns="http://www.w3.org/2000/svg">
<g clip-path="url(#clip0)">
<path d="M30.8034 19.9581H28.0193C28.3031 20.735 28.4581 21.5735 28.4581 22.4474V32.9697C28.4581 33.3341 28.3947 33.6838 28.2793 34.0091H32.882C34.6014 34.0091 36.0001 32.6103 36.0001 30.891V25.1548C36.0002 22.2894 33.6689 19.9581 30.8034 19.9581Z" fill="#434343"/>
<path d="M7.54208 22.4475C7.54208 21.5735 7.69712 20.7351 7.9809 19.9581H5.19681C2.33129 19.9581 0 22.2894 0 25.1549V30.8911C0 32.6104 1.39873 34.0092 3.11808 34.0092H7.72089C7.60551 33.6838 7.54208 33.3341 7.54208 32.9698V22.4475Z" fill="#434343"/>
<path d="M21.1826 17.2508H14.8177C11.9522 17.2508 9.62094 19.5821 9.62094 22.4476V32.9699C9.62094 33.5439 10.0863 34.0093 10.6603 34.0093H25.34C25.9141 34.0093 26.3794 33.5439 26.3794 32.9699V22.4476C26.3794 19.5821 24.0481 17.2508 21.1826 17.2508Z" fill="#FF6B00"/>
<path d="M17.9998 3.47125C14.5536 3.47125 11.75 6.2749 11.75 9.72113C11.75 12.0587 13.0401 14.1002 14.9455 15.172C15.8492 15.6804 16.8911 15.9709 17.9998 15.9709C19.1085 15.9709 20.1504 15.6804 21.0541 15.172C22.9595 14.1002 24.2496 12.0586 24.2496 9.72113C24.2496 6.27497 21.4459 3.47125 17.9998 3.47125Z" fill="#FF6B00"/>
<path d="M7.02541 9.29645C4.4481 9.29645 2.35138 11.3932 2.35138 13.9705C2.35138 16.5478 4.4481 18.6445 7.02541 18.6445C7.67918 18.6445 8.30173 18.5091 8.86725 18.2657C9.84502 17.8447 10.6512 17.0995 11.1501 16.1661C11.5002 15.511 11.6994 14.7637 11.6994 13.9705C11.6994 11.3932 9.60272 9.29645 7.02541 9.29645Z" fill="#434343"/>
<path d="M28.9745 9.29645C26.3972 9.29645 24.3005 11.3932 24.3005 13.9705C24.3005 14.7637 24.4997 15.5111 24.8499 16.1661C25.3487 17.0996 26.1549 17.8448 27.1327 18.2657C27.6982 18.5091 28.3208 18.6445 28.9745 18.6445C31.5519 18.6445 33.6486 16.5478 33.6486 13.9705C33.6486 11.3932 31.5519 9.29645 28.9745 9.29645Z" fill="#434343"/>
</g>
<defs>
<clipPath id="clip0">
<rect width="36" height="36" fill="white" transform="translate(0 0.740234)"/>
</clipPath>
</defs>
</svg>

<svg xmlns="http://www.w3.org/2000/svg" width="36" height="37" fill="none" xmlns:v="https://vecta.io/nano"><g clip-path="url(#A)"><g fill="#434343"><path d="M30.803 19.958h-2.784a7.24 7.24 0 0 1 .439 2.489V32.97c0 .364-.063.714-.179 1.039h4.603c1.719 0 3.118-1.399 3.118-3.118v-5.736c0-2.865-2.331-5.197-5.197-5.197zm-23.261 2.49a7.24 7.24 0 0 1 .439-2.489H5.197C2.331 19.958 0 22.289 0 25.155v5.736c0 1.719 1.399 3.118 3.118 3.118h4.603a3.11 3.11 0 0 1-.179-1.039V22.448z"/></g><g fill="#ff6b00"><path d="M21.183 17.251h-6.365c-2.866 0-5.197 2.331-5.197 5.197V32.97a1.04 1.04 0 0 0 1.039 1.039h14.68a1.04 1.04 0 0 0 1.039-1.039V22.448c0-2.866-2.331-5.197-5.197-5.197zM18 3.471a6.26 6.26 0 0 0-6.25 6.25c0 2.338 1.29 4.379 3.195 5.451a6.21 6.21 0 0 0 6.109 0c1.905-1.072 3.196-3.113 3.196-5.451A6.26 6.26 0 0 0 18 3.471z"/></g><g fill="#434343"><path d="M7.025 9.296a4.68 4.68 0 0 0-4.674 4.674 4.68 4.68 0 0 0 4.674 4.674 4.65 4.65 0 0 0 1.842-.379 4.7 4.7 0 0 0 2.283-2.1c.35-.655.549-1.402.549-2.196a4.68 4.68 0 0 0-4.674-4.674zm21.95 0a4.68 4.68 0 0 0-4.674 4.674c0 .793.199 1.541.549 2.196a4.7 4.7 0 0 0 2.283 2.1 4.65 4.65 0 0 0 1.842.379 4.68 4.68 0 0 0 4.674-4.674 4.68 4.68 0 0 0-4.674-4.674z"/></g></g><defs><clipPath id="A"><path fill="#fff" transform="translate(0 .74)" d="M0 0h36v36H0z"/></clipPath></defs></svg>
